!!!OTL: ICH LEBTE SONST SO FROH
!!!ARE: Europa, Mitteleuropa, Deutschland, Hochwald, Hellertshausen
!!!SCT: B0477
!!!YEM: Copyright 1995, estate of Helmut Schaffrath.
**kern
*ICvox
*Ivox
*M3/4
*k[b-]
*F:
{8c
=1
8.a
16g
4.f
8e
=2
8.e
16d
4d
8r}
{8b-
=3
8b-
8g
4.cc
8g
=4
4a
4f
8r}
{8cc
=5
8cc
8a
4ff
8ee
8dd
=6
8.dd
16cc
4.cc}
{8a
=7
8a
8g
4b-
4g
=8
8a
8dd
4cc
8r}
{8cc
=9
8cc
8a
4ff
8ee
8dd
=10
8.dd
16cc
4.cc}
{8a
=11
8a
8g
4b-
4g
=12
4g
4f
8r}
==
!!!AGN: Liebes - Lied, Leid, Klage, Tod
!!!ONB: ESAC (Essen Associative Code) Database: BOEHME
!!!AMT: simple triple
!!!AIN: vox
!!!EED: Helmut Schaffrath
!!!EEV: 1.0
*-
